img/icons-payable-taxes/07.svg

<svg width="50" height="42" viewBox="0 0 50 42" fill="none" xmlns="http://www.w3.org/2000/svg">
<path d="M46.5271 26.5838H43.3953C42.7275 26.5838 42.184 27.124 42.1773 27.7902H37.619C37.6854 27.1966 37.7195 26.5964 37.7195 25.9977C37.7195 20.9953 35.3726 16.2982 31.4075 13.285L35.6228 8.29957C35.8494 8.48727 36.1246 8.57955 36.3989 8.57955C36.7453 8.57955 37.0897 8.43307 37.3305 8.1484L39.3525 5.7569C40.5888 4.29449 40.405 2.09899 38.9428 0.862561C38.2345 0.263733 37.3351 -0.0235721 36.4107 0.0538694C35.4863 0.131311 34.6474 0.564026 34.0484 1.27233L32.0264 3.66363C31.8162 3.91217 31.7154 4.2277 31.7426 4.55211C31.7694 4.87233 31.9183 5.16305 32.1611 5.37262L27.3619 11.0488C25.573 10.3775 23.6901 10.0371 21.7589 10.0371C12.9581 10.0371 5.79824 17.197 5.79824 25.9977C5.79824 26.8155 5.86123 27.6332 5.98457 28.4377L0.90293 29.0402C0.379688 29.1023 -9.76374e-05 29.5298 1.88288e-08 30.0568C1.88288e-08 30.5838 0.379883 31.0112 0.903027 31.0732L6.88086 31.782C7.28242 32.814 7.79053 33.8034 8.39883 34.7319L6.34082 37.8467C6.05039 38.2865 6.13174 38.8525 6.53408 39.1927C6.93574 39.5323 7.50752 39.5193 7.89326 39.1593L10.2025 37.0043C13.2096 40.1593 17.3865 41.9583 21.759 41.9583C24.9972 41.9583 28.115 40.9938 30.7757 39.1692C33.2765 37.4541 35.2187 35.0916 36.4142 32.3232H42.1775C42.1842 32.9895 42.7276 33.5296 43.3955 33.5296H46.5272C48.4422 33.5296 50.0002 31.9715 50.0002 30.0566C50.0002 28.1417 48.442 26.5838 46.5271 26.5838ZM31.7247 30.861C31.9284 30.4346 32.4012 29.3587 32.445 29.2525H42.1768V30.861H31.7247ZM29.9638 17.5727C29.9638 26.6576 25.1181 35.1529 17.305 39.7931C16.5279 39.5421 15.7736 39.226 15.0504 38.8485C18.2601 37.2004 20.9985 34.8748 23.1226 32.0951C23.1407 32.0759 23.1581 32.056 23.1742 32.0348C24.1739 30.7012 25.0854 29.2658 25.7618 27.7568C27.2368 24.6285 28.0445 21.1626 28.0445 17.5726C28.0445 17.4698 28.0438 17.3673 28.0426 17.2648L29.8489 15.1285C29.9249 15.9396 29.9638 16.7572 29.9638 17.5727ZM20.078 24.4196L17.2281 27.7902H15.1217L18.677 23.5854C19.1537 23.8465 19.622 24.1252 20.078 24.4196ZM21.2867 25.2549C22.2973 26.0062 23.2482 26.8453 24.1294 27.766C24.1253 27.7741 24.121 27.7821 24.1168 27.7902H19.143L21.2867 25.2549ZM33.2775 6.31725L34.5058 7.35582L25.3858 18.1421C24.9421 17.8328 24.4918 17.5344 24.0336 17.2501L33.2775 6.31725ZM35.1651 2.21637C35.5118 1.80631 35.9976 1.55572 36.5327 1.5109C37.0686 1.46637 37.5885 1.63239 37.9986 1.97916C38.8452 2.69498 38.9517 3.96608 38.2358 4.81276L36.3711 7.01823L33.3005 4.42174L35.1651 2.21637ZM7.26055 25.9977C7.26055 18.0032 13.7645 11.4993 21.7589 11.4993C23.3362 11.4993 24.8771 11.7497 26.3523 12.2427L22.754 16.4986C21.0841 15.5717 19.3287 14.8036 17.4988 14.201C17.1154 14.0751 16.702 14.2833 16.5757 14.6669C16.4494 15.0505 16.658 15.4637 17.0415 15.59C20.4448 16.7104 23.5777 18.4339 26.3607 20.7113C26.2604 21.4214 26.1269 22.1231 25.9604 22.8143C22.2602 19.5488 17.7754 17.3573 12.9318 16.4575C12.5348 16.384 12.1532 16.6458 12.0794 17.0427C12.0057 17.4397 12.2677 17.8214 12.6646 17.8952C17.4799 18.7897 21.9205 21.0345 25.5199 24.3897C25.307 25.056 25.063 25.7103 24.7902 26.3511C21.7787 23.3478 18.0488 21.2103 13.9364 20.1435C13.5454 20.0422 13.1466 20.2768 13.0451 20.6677C12.9438 21.0586 13.1784 21.4576 13.5692 21.559C14.8696 21.8964 16.1292 22.348 17.3362 22.9061L13.2067 27.7902H11.4888C11.4601 27.7902 11.4312 27.792 11.4026 27.7953L7.4377 28.2654C7.3207 27.5183 7.26055 26.7583 7.26055 25.9977ZM11.5321 29.2525H23.2982C22.9622 29.8038 22.6028 30.3405 22.2206 30.861H11.532L4.74922 30.0567L11.5321 29.2525ZM8.5502 31.9799L10.0959 32.1632L9.28555 33.3897C9.01455 32.9334 8.76924 32.4627 8.5502 31.9799ZM11.7429 32.3233H13.075L9.60019 35.5662L11.7429 32.3233ZM11.2715 36.0066L15.2183 32.3232H21.0511C19.0118 34.6651 16.4753 36.5991 13.5561 37.9502C12.7352 37.3871 11.9689 36.7369 11.2715 36.0066ZM19.2743 40.28C22.7064 37.9872 25.5957 34.9316 27.6894 31.364C30.1339 27.1983 31.4261 22.4294 31.4261 17.5727C31.4261 16.7459 31.3877 15.9172 31.3136 15.0941C34.4352 17.8321 36.2573 21.7966 36.2573 25.9977C36.2573 26.597 36.22 27.1978 36.1471 27.7902H34.3242C34.0482 27.3209 33.7583 26.8549 33.4584 26.4022C33.4582 26.4019 33.458 26.4017 33.4579 26.4015C33.7676 25.3714 34.0253 24.3222 34.2255 23.2564C34.3 22.8596 34.0387 22.4775 33.6418 22.4029C33.2457 22.3286 32.8629 22.5896 32.7883 22.9866C32.4404 24.839 31.9133 26.6402 31.2236 28.3698C30.8353 29.3443 30.3918 30.3014 29.9003 31.2273C28.0113 34.7857 25.3856 37.9465 22.1569 40.4886C22.0244 40.4922 21.892 40.4961 21.7589 40.4961C20.9199 40.4961 20.0892 40.4219 19.2743 40.28ZM28.9676 35.4847C29.2844 36.3399 29.5488 37.2163 29.7586 38.1029C28.2588 39.0933 26.5731 39.8026 24.7784 40.1804C26.3406 38.7544 27.7426 37.1799 28.9676 35.4847ZM31.03 37.1589C30.7473 36.0906 30.3897 35.0397 29.9622 34.0231C30.3169 33.4673 30.654 32.9006 30.9719 32.3233H31.3059C31.8104 33.3981 32.2421 34.5132 32.5929 35.6468C32.1091 36.1917 31.5862 36.6964 31.03 37.1589ZM33.6768 34.2657C33.4468 33.609 33.1917 32.9602 32.9121 32.3233H34.8071C34.4771 33.0057 34.099 33.6546 33.6768 34.2657ZM46.5271 32.0673H43.6391V28.0461H46.5271C47.6357 28.0461 48.5377 28.948 48.5377 30.0567C48.5377 31.1654 47.6357 32.0673 46.5271 32.0673Z" fill="#007A65"/>
</svg>

<svg width="50" height="42" fill="none" xmlns="http://www.w3.org/2000/svg"><path d="M46.527 26.584h-3.132a1.22 1.22 0 00-1.218 1.206H37.62a15.97 15.97 0 00-6.212-14.505L35.623 8.3a1.217 1.217 0 001.708-.151l2.021-2.392a3.477 3.477 0 00-.41-4.894 3.45 3.45 0 00-2.531-.81 3.45 3.45 0 00-2.363 1.22l-2.022 2.39a1.21 1.21 0 00-.283.89c.026.32.175.61.418.82l-4.8 5.676a15.882 15.882 0 00-5.602-1.012c-8.8 0-15.96 7.16-15.96 15.96 0 .819.062 1.636.186 2.44l-5.082.603C.38 29.102 0 29.53 0 30.057c0 .527.38.954.903 1.016l5.978.709c.401 1.032.91 2.021 1.518 2.95L6.34 37.847c-.29.44-.21 1.005.193 1.346.402.34.974.326 1.36-.034l2.309-2.155a15.974 15.974 0 0011.556 4.954c3.238 0 6.356-.964 9.017-2.789a15.948 15.948 0 005.638-6.846h5.764a1.22 1.22 0 001.218 1.207h3.131A3.477 3.477 0 0050 30.057a3.477 3.477 0 00-3.473-3.473zM31.725 30.86a70.47 70.47 0 00.72-1.608h9.732v1.608H31.725zm-1.761-13.288c0 9.085-4.846 17.58-12.659 22.22a14.512 14.512 0 01-2.255-.944 23.892 23.892 0 008.073-6.754.745.745 0 00.051-.06c1-1.334 1.911-2.77 2.588-4.278a23.86 23.86 0 002.28-10.492l1.807-2.136c.076.81.115 1.628.115 2.444zm-9.886 6.847l-2.85 3.37h-2.106l3.555-4.205c.477.261.945.54 1.401.835zm1.209.835c1.01.751 1.961 1.59 2.842 2.511l-.012.024h-4.974l2.144-2.535zm11.99-18.938l1.229 1.039-9.12 10.786c-.444-.31-.894-.608-1.352-.892l9.244-10.933zm1.888-4.1c.347-.41.833-.661 1.368-.706a2.013 2.013 0 011.703 3.302L36.37 7.018 33.3 4.422l1.864-2.206zM7.261 25.996c0-7.994 6.503-14.498 14.498-14.498 1.577 0 3.118.25 4.593.744l-3.598 4.256a30.423 30.423 0 00-5.255-2.298.731.731 0 00-.457 1.389 28.959 28.959 0 019.319 5.121c-.1.71-.234 1.412-.4 2.103a27.153 27.153 0 00-13.03-6.357.731.731 0 00-.266 1.438A25.708 25.708 0 0125.52 24.39a22.46 22.46 0 01-.73 1.961 23.812 23.812 0 00-10.854-6.207.731.731 0 00-.367 1.415c1.3.337 2.56.789 3.767 1.347l-4.13 4.884H11.49a.754.754 0 00-.086.005l-3.965.47a14.675 14.675 0 01-.177-2.267zm4.271 3.256h11.766a22.514 22.514 0 01-1.077 1.608H11.532l-6.783-.804 6.783-.804zM8.55 31.98l1.546.183-.81 1.227a14.46 14.46 0 01-.736-1.41zm3.193.343h1.332L9.6 35.566l2.143-3.243zm-.472 3.684l3.947-3.684h5.833a22.417 22.417 0 01-7.495 5.627 14.5 14.5 0 01-2.284-1.943zm8.003 4.273a27.454 27.454 0 008.415-8.916 27.268 27.268 0 003.625-16.27 14.506 14.506 0 014.833 12.696h-1.823c-.276-.47-.566-.935-.866-1.388.31-1.03.567-2.08.767-3.146a.731.731 0 00-1.437-.27 28.967 28.967 0 01-2.888 8.241 29.235 29.235 0 01-7.743 9.262c-.133.003-.265.007-.398.007-.84 0-1.67-.074-2.485-.216zm9.694-4.795c.316.855.58 1.731.79 2.618-1.5.99-3.185 1.7-4.98 2.077 1.563-1.426 2.965-3 4.19-4.695zm2.062 1.674a23.822 23.822 0 00-1.068-3.136 30.58 30.58 0 001.01-1.7h.334a25.76 25.76 0 011.287 3.324 14.408 14.408 0 01-1.563 1.512zm2.647-2.893a27.209 27.209 0 00-.765-1.943h1.895a14.59 14.59 0 01-1.13 1.943zm12.85-2.199H43.64v-4.02h2.888c1.109 0 2.01.901 2.01 2.01 0 1.108-.901 2.01-2.01 2.01z" fill="#007A65"/></svg>
